X:1
T:Lesson I
T:Lesson I
T:The Diatonic Scale
T:Nicola Vaccai (1790-1848)
T:Public Domain - Mutopia-2019/07/12-2245
C:Nicola Vaccai (1790-1848)
Z:Public Domain - Mutopia-2019/07/12-2245
%%score 1 { ( 2 4 ) | 3 }
L:1/8
Q:1/4=75
M:4/4
K:A
V:1 treble nm="Voice"
V:2 treble nm="Piano"
V:4 treble 
V:3 bass 
V:1
"^Adagio" A,4 B,2 C2 | D2 E2 F2 z2 | B,4 C2 ^D2 | (E2 F2) =G2 z2 | B4 A2 =G2 | F2 E2 D2 z2 | %6
w: Ma\- nca sol\-|le\- ci ta|più del\- l'u\-|sa- * to,|an\- cor\- chè|s'a\- gi\- ti|
 F4 E2 D2 | (C2 B,2) A,2 z2 | A,4 B,2 C2 | (D2 E2) F2 G2 | A4 B3 B | c4 z4 | c4 B2 A2 | %13
w: con lie\- ve|fia- * to,|fa\- ce che|pal- * pi\- ta|pres\- soa\- lmo|rir,|fa\- ce che|
 (G2 F2) E2 D2 | C4 B,3 B, | A,4 z4 |] %16
w: pal- * pi\- ta|pres\- soa\- lmo\-|rir.|
V:2
!p! (A,4 B,2 [A,C]2 | D2 E2 F2) z2 | (B,4 C2 [B,^D]2 | E2 F2 =G2) z2 | ([=GB]4 [FA]2 [EG]2 | %5
 [DF]2 [CE]2 [B,D]2) z2 | ([DF]4[K:bass] [CE]2 [B,D]2 | [A,C]2 [D,G,B,]2 [C,A,]2) z2 | %8
[K:treble] (A,4 B,2 [A,C]2) | (D2 E2 F2 [EG]2 | A4) B3 B |!f! !>!c4 z4 |!p! (c4 B2 A2) | %13
 ([=EG]2 [DF]2 [CE]2 [B,D]2) | ([A,C]4 [G,B,]4) | A,4 z4 |] %16
V:3
 z4 z2 (=G,2 | F,2 C,2 D,2) z2 | z4 z2 (A,2 | =G,2 ^D,2 E,2) z2 | z2 (C,2 =D,2 =G,,2 | %5
 A,,2 ^A,,2 B,,2) z2 | z2 (G,,2 =A,,2 D,2 | E,2 E,,2 A,,2) z2 | z2 A,,2 G,2 =G,2 | %9
 (F,2 C,2 D,2 B,,2 | C,4) D,3 D, | !>!C,4 z4 | z2 (C,2 D,2 ^D,2) | (E,2 G,,2 A,,2 [=D,=F,]2) | %14
 (E,4 E,,4) | A,,4 z4 |] %16
V:4
 x8 | A,6 x2 | z8 | B,6 x2 | x8 | x8 | x4[K:bass] x4 | x8 |[K:treble] x8 | (A,6 D2) | E4 F3 F | %11
 ^E4 x4 | z2 (^E2 F4) | z8 | x8 | x8 |] %16

